src/icons/outline/communication/mail.svg

<svg width="24" height="24" viewBox="0 0 24 24" fill="none" xmlns="http://www.w3.org/2000/svg">
<g clip-path="url(#clip0_4191_723)">
<path fill-rule="evenodd" clip-rule="evenodd" d="M22.2666 5C22.6715 5 22.9999 5.30516 23 5.68164V19.3184C22.9999 19.6948 22.6715 20 22.2666 20H1.7334C1.32845 20 1.0001 19.6948 1 19.3184V5.68164C1.0001 5.30516 1.32845 5 1.7334 5H22.2666ZM14.1309 13.2031C13.4482 13.7197 12.6112 14 11.75 14C10.8887 14 10.0518 13.7197 9.36914 13.2031L2.4668 7.98047V18.6367H21.5332V7.60156L14.1309 13.2031ZM10.249 12.0771C10.6793 12.4028 11.2071 12.5801 11.75 12.5801C12.2928 12.5801 12.8207 12.4037 13.251 12.0781L20.8018 6.36328H2.69824L10.249 12.0771Z" fill="#3C3B44"/>
</g>
<defs>
<clipPath id="clip0_4191_723">
<rect width="24" height="24" fill="white"/>
</clipPath>
</defs>
</svg>

<svg xmlns="http://www.w3.org/2000/svg" width="24" height="24" fill="none" viewBox="0 0 24 24"><g clip-path="url(#a)"><path fill="currentColor" fill-rule="evenodd" d="M22.267 5c.405 0 .733.305.733.682v13.636c0 .377-.328.682-.733.682H1.733C1.328 20 1 19.695 1 19.318V5.682C1 5.305 1.328 5 1.733 5zm-8.136 8.203A3.95 3.95 0 0 1 11.75 14a3.94 3.94 0 0 1-2.38-.797L2.466 7.98v10.657h19.066V7.602zm-3.882-1.126a2.49 2.49 0 0 0 3.002.001l7.55-5.715H2.699z" clip-rule="evenodd"/></g><defs><clipPath id="a"><path fill="currentColor" d="M0 0h24v24H0z"/></clipPath></defs></svg>
